automatic/svg/Entex - Adventure Vision-content.svg

<?xml version="1.0" encoding="UTF-8" standalone="no"?>
<svg
   xmlns:dc="http://purl.org/dc/elements/1.1/"
   xmlns:cc="http://creativecommons.org/ns#"
   xmlns:rdf="http://www.w3.org/1999/02/22-rdf-syntax-ns#"
   xmlns:svg="http://www.w3.org/2000/svg"
   xmlns="http://www.w3.org/2000/svg"
   viewBox="0 0 309.33331 154.66665"
   height="154.66666"
   width="309.33331"
   xml:space="preserve"
   id="svg2"
   version="1.1"><metadata
     id="metadata8"><rdf:RDF><cc:Work
         rdf:about=""><dc:format>image/svg+xml</dc:format><dc:type
           rdf:resource="http://purl.org/dc/dcmitype/StillImage" /></cc:Work></rdf:RDF></metadata><defs
     id="defs6"><clipPath
       id="clipPath18"
       clipPathUnits="userSpaceOnUse"><path
         id="path16"
         d="M 0,256 H 256 V 0 H 0 Z" /></clipPath></defs><g
     transform="matrix(1.3333333,0,0,-1.3333333,-16,245.33333)"
     id="g10"><g
       id="g12"><g
         clip-path="url(#clipPath18)"
         id="g14"><g
           transform="translate(240,76)"
           id="g20"><path
             id="path22"
             style="fill:#f2f2f2;fill-opacity:1;fill-rule:nonzero;stroke:none"
             d="m 0,0 c 0,-2.209 -1.791,-4 -4,-4 h -216 c -2.209,0 -4,1.791 -4,4 v 100 c 0,2.209 1.791,4 4,4 H -4 c 2.209,0 4,-1.791 4,-4 z m -4,108 h -216 c -4.411,0 -8,-3.589 -8,-8 V 0 c 0,-4.411 3.589,-8 8,-8 H -4 c 4.411,0 8,3.589 8,8 v 100 c 0,4.411 -3.589,8 -8,8" /></g><path
           id="path24"
           style="fill:#f2f2f2;fill-opacity:1;fill-rule:nonzero;stroke:none"
           d="M 24,164 H 232 V 116 H 24 Z M 232,84 H 24 V 96 H 232 Z M 24,112 H 232 V 100 H 24 Z m 0,60 h 208 v -4 H 24 Z m 0,4 h -4 v -4 -56 -4 -12 -4 -12 -4 h 4 208 4 v 4 12 4 12 4 56 4 h -4 z" /></g></g></g></svg>

<?xml version="1.0" encoding="UTF-8" standalone="no"?>
<svg
   xmlns:dc="http://purl.org/dc/elements/1.1/"
   xmlns:cc="http://creativecommons.org/ns#"
   xmlns:rdf="http://www.w3.org/1999/02/22-rdf-syntax-ns#"
   xmlns:svg="http://www.w3.org/2000/svg"
   xmlns="http://www.w3.org/2000/svg"
   viewBox="0 0 320 320"
   height="320"
   width="320"
   xml:space="preserve"
   version="1.1"
   id="svg2"><metadata
     id="metadata8"><rdf:RDF><cc:Work
         rdf:about=""><dc:format>image/svg+xml</dc:format><dc:type
           rdf:resource="http://purl.org/dc/dcmitype/StillImage" /></cc:Work></rdf:RDF></metadata><defs
     id="defs6"><clipPath
       id="clipPath16"
       clipPathUnits="userSpaceOnUse"><path
         id="path18"
         d="M 0,256 256,256 256,0 0,0 0,256 Z" /></clipPath></defs><g
     transform="matrix(1.25,0,0,-1.25,0,320)"
     id="g10"><g
       id="g12"><g
         clip-path="url(#clipPath16)"
         id="g14"><g
           transform="translate(240,76)"
           id="g20"><path
             id="path22"
             style="fill:#f2f2f2;fill-opacity:1;fill-rule:nonzero;stroke:none"
             d="m 0,0 c 0,-2.209 -1.791,-4 -4,-4 l -216,0 c -2.209,0 -4,1.791 -4,4 l 0,100 c 0,2.209 1.791,4 4,4 l 216,0 c 2.209,0 4,-1.791 4,-4 L 0,0 Z m -4,108 -216,0 c -4.411,0 -8,-3.589 -8,-8 l 0,-100 c 0,-4.411 3.589,-8 8,-8 l 216,0 c 4.411,0 8,3.589 8,8 l 0,100 c 0,4.411 -3.589,8 -8,8" /></g><path
           id="path24"
           style="fill:#f2f2f2;fill-opacity:1;fill-rule:nonzero;stroke:none"
           d="m 24,164 208,0 0,-48 -208,0 0,48 z m 208,-80 -208,0 0,12 208,0 0,-12 z m -208,28 208,0 0,-12 -208,0 0,12 z m 0,60 208,0 0,-4 -208,0 0,4 z m 0,4 -4,0 0,-4 0,-56 0,-4 0,-12 0,-4 0,-12 0,-4 4,0 208,0 4,0 0,4 0,12 0,4 0,12 0,4 0,56 0,4 -4,0 -208,0 z" /></g></g></g></svg>
